src/4-icons/hand-over-ticket.svg

<svg width="260" height="260" viewBox="0 0 260 260" fill="none" xmlns="http://www.w3.org/2000/svg">
<path d="M198.323 194.155L217.806 250.314" stroke="black" stroke-width="8" stroke-linecap="round" stroke-linejoin="round"/>
<path d="M94.5731 106.399L84.4869 67.9739C84.0887 66.4536 83.3804 65.0321 82.4064 63.7987C81.4324 62.5653 80.2138 61.5468 78.8272 60.807C77.4406 60.0672 75.916 59.6223 74.3491 59.5001C72.7823 59.3779 71.2071 59.5811 69.7226 60.097V60.097C67.0592 61.0192 64.8321 62.8957 63.4715 65.3641C62.1109 67.8324 61.7132 70.7174 62.3554 73.4618C67.1736 94.0639 78.0094 139.996 79.9887 145.724C86.7561 165.207 97.6419 205.011 124.352 217.356L133.568 250.344" stroke="black" stroke-width="8" stroke-linecap="round" stroke-linejoin="round"/>
<path d="M122.292 105.689L110.497 69.7032L101.161 41.1342C100.687 39.6869 99.93 38.3485 98.9336 37.197C97.9372 36.0456 96.7214 35.1041 95.3572 34.4276C93.9931 33.7511 92.5078 33.3531 90.9881 33.2568C89.4684 33.1606 87.9448 33.368 86.5061 33.867V33.867C83.7794 34.8164 81.5103 36.7579 80.1507 39.305C78.791 41.8521 78.4405 44.8178 79.169 47.6117L88.4054 82.8681L96.7222 114.566" stroke="black" stroke-width="8" stroke-linecap="round" stroke-linejoin="round"/>
<path d="M145.203 88.8258L120.363 21.1219C119.259 18.1062 117.013 15.6457 114.111 14.2711C111.208 12.8966 107.882 12.7183 104.849 13.7747V13.7747C101.814 14.8263 99.3138 17.0282 97.8871 19.9059C96.4604 22.7836 96.2215 26.1066 97.2218 29.1588L111.007 71.2426L120.603 100.541" stroke="black" stroke-width="8" stroke-linecap="round" stroke-linejoin="round"/>
<path d="M172.633 83.9677L168.735 74.9711L146.983 25.0603C145.795 22.3287 143.619 20.1467 140.89 18.9511C138.162 17.7556 135.082 17.6347 132.269 18.6128V18.6128C130.785 19.1275 129.418 19.9325 128.249 20.981C127.08 22.0294 126.131 23.3003 125.458 24.7194C124.786 26.1385 124.402 27.6774 124.331 29.2462C124.259 30.8151 124.501 32.3825 125.041 33.857L136.767 65.8447L148.143 96.7328" stroke="black" stroke-width="8" stroke-linecap="round" stroke-linejoin="round"/>
<path d="M75.5704 102.441L74.9204 104.171" stroke="white" stroke-width="5" stroke-miterlimit="10"/>
<path d="M98.172 42.1238L97.542 43.8038" stroke="white" stroke-width="5" stroke-miterlimit="10"/>
<path d="M141.605 137.947C140.823 137.948 140.048 137.809 139.316 137.537L34.5661 98.2822C32.9662 97.6735 31.6695 96.4607 30.9552 94.9051C30.241 93.3495 30.1664 91.5755 30.7475 89.9654L36.9951 73.2719C37.4588 72.034 38.289 70.9669 39.375 70.2132C40.4609 69.4595 41.7509 69.0549 43.0728 69.0535C43.8595 69.05 44.6396 69.1959 45.3719 69.4833C46.6163 69.9452 47.933 70.1822 49.2604 70.183C50.8659 70.1791 52.4528 69.8386 53.9186 69.1834C55.2484 68.605 56.4483 67.7651 57.447 66.7137C58.4457 65.6622 59.2227 64.4207 59.7319 63.0628C60.241 61.705 60.472 60.2587 60.4109 58.8098C60.3499 57.361 59.9981 55.9392 59.3765 54.629C58.7687 53.291 57.9033 52.0859 56.8296 51.0825C55.7559 50.0791 54.495 49.2972 53.1189 48.7813C51.5071 48.1728 50.2012 46.9519 49.4859 45.3846C48.7706 43.8173 48.7039 42.0308 49.3004 40.4145L55.538 23.7909C56.0094 22.5562 56.8429 21.4927 57.9293 20.74C59.0156 19.9872 60.304 19.5803 61.6257 19.5725C62.4078 19.5724 63.1835 19.7147 63.9148 19.9923L168.654 59.2473C170.267 59.8514 171.575 61.0702 172.29 62.6366C173.006 64.203 173.072 65.9893 172.473 67.604L147.693 133.739C147.226 134.976 146.394 136.043 145.306 136.797C144.219 137.55 142.928 137.955 141.605 137.957V137.947Z" fill="white"/>
<path d="M61.6256 22.0716C62.107 22.0754 62.584 22.1633 63.035 22.3315L167.785 61.5864C168.277 61.7699 168.729 62.0486 169.113 62.4067C169.498 62.7648 169.808 63.1953 170.027 63.6734C170.245 64.1515 170.366 64.668 170.385 65.1932C170.403 65.7185 170.318 66.2422 170.134 66.7344L145.353 132.859C145.068 133.623 144.556 134.281 143.886 134.745C143.216 135.21 142.42 135.459 141.605 135.458C141.127 135.459 140.653 135.374 140.205 135.208L35.4456 95.9632C34.9532 95.7797 34.5017 95.5009 34.117 95.1428C33.7323 94.7847 33.422 94.3543 33.2038 93.8762C32.9857 93.398 32.8639 92.8816 32.8455 92.3563C32.8271 91.8311 32.9124 91.3074 33.0965 90.8152L39.3441 74.1716C39.6283 73.411 40.1372 72.755 40.8032 72.2908C41.4693 71.8265 42.2609 71.576 43.0727 71.5726C43.5543 71.5736 44.0318 71.6616 44.4822 71.8325C46.01 72.406 47.6284 72.7005 49.2603 72.7021C51.2174 72.6971 53.1516 72.2816 54.9381 71.4826C56.5733 70.7705 58.0486 69.7369 59.2764 68.4432C60.5041 67.1496 61.4592 65.6223 62.085 63.9521C62.7107 62.282 62.9942 60.5031 62.9188 58.7212C62.8433 56.9393 62.4103 55.1907 61.6456 53.5795C60.9021 51.9459 59.8441 50.4748 58.532 49.2502C57.2199 48.0255 55.6794 47.0714 53.9985 46.4422C53.5048 46.2588 53.0523 45.9797 52.6668 45.6209C52.2813 45.262 51.9705 44.8306 51.7522 44.3513C51.5339 43.872 51.4125 43.3544 51.3948 42.828C51.3772 42.3017 51.4637 41.777 51.6494 41.2842L57.887 24.6706C58.1718 23.9085 58.6822 23.2514 59.3502 22.787C60.0182 22.3226 60.812 22.073 61.6256 22.0716ZM61.6256 17.0735C59.7903 17.0688 57.9974 17.6256 56.4876 18.669C54.9778 19.7125 53.8232 21.1928 53.1788 22.9113L46.9612 39.5249C46.1201 41.7534 46.197 44.2245 47.1752 46.3963C48.1534 48.5682 49.9529 50.2635 52.1792 51.1104C54.3454 51.9266 56.102 53.5647 57.0673 55.6687C57.5517 56.6796 57.8268 57.7781 57.8759 58.898C57.925 60.0179 57.7472 61.1362 57.3532 62.1857C56.9592 63.2352 56.3571 64.1942 55.583 65.0051C54.809 65.816 53.879 66.462 52.849 66.9044C51.7068 67.4136 50.4709 67.6792 49.2204 67.684C48.1963 67.6773 47.1813 67.4913 46.2215 67.1343C45.1171 66.7151 43.9404 66.5196 42.7598 66.5591C41.5791 66.5985 40.4181 66.8722 39.3441 67.3642C38.2701 67.8463 37.3021 68.5361 36.4958 69.3939C35.6895 70.2517 35.0608 71.2605 34.646 72.3623L28.4084 89.0358C27.9932 90.1424 27.8001 91.32 27.8401 92.5012C27.8802 93.6824 28.1526 94.8442 28.6418 95.9201C29.1311 96.996 29.8275 97.965 30.6913 98.7717C31.5552 99.5783 32.5695 100.207 33.6763 100.621L138.446 139.886C139.455 140.267 140.526 140.46 141.605 140.456C143.433 140.456 145.217 139.9 146.721 138.86C148.224 137.821 149.376 136.348 150.022 134.638L174.812 68.4937C175.227 67.3871 175.42 66.2096 175.38 65.0284C175.34 63.8471 175.068 62.6854 174.579 61.6095C174.089 60.5335 173.393 59.5646 172.529 58.7579C171.665 57.9512 170.651 57.3227 169.544 56.9082L64.7844 17.6533C63.7747 17.2721 62.7048 17.0758 61.6256 17.0735Z" fill="white"/>
<path d="M55.3978 42.6937C59.755 44.3281 63.2844 47.6265 65.2097 51.8632C67.1349 56.0999 67.2983 60.9278 65.6639 65.285C64.0294 69.6421 60.7311 73.1716 56.4944 75.0968C52.2577 77.0221 47.4297 77.1855 43.0726 75.551L36.835 92.1946L141.595 131.46L166.385 65.335L61.6254 26.0701L55.3978 42.6937Z" fill="white" stroke="black" stroke-width="8" stroke-linecap="round" stroke-linejoin="round"/>
<path d="M98.1715 42.1338L95.0127 50.5505" stroke="black" stroke-width="8" stroke-linecap="round" stroke-linejoin="round"/>
<path d="M89.3652 65.6147L80.8984 88.2061" stroke="black" stroke-width="8" stroke-linecap="round" stroke-linejoin="round" stroke-dasharray="16.09 16.09"/>
<path d="M78.0792 95.7432L74.9204 104.17" stroke="black" stroke-width="8" stroke-linecap="round" stroke-linejoin="round"/>
<path d="M173.043 93.9038L179.041 110.228L182.269 118.934C182.333 124.559 181.294 130.142 179.211 135.368" stroke="black" stroke-width="8" stroke-linecap="round" stroke-linejoin="round"/>
<path d="M190.216 196.924C210.338 183.699 214.756 174.993 212.577 129.65C212.347 124.652 212.577 123.203 209.728 116.475C206.909 110.477 204.094 104.503 201.282 98.552L191.565 80.449" stroke="black" stroke-width="8" stroke-linecap="round" stroke-linejoin="round"/>
<path d="M201.282 98.592L189.436 76.5105C188.632 75.0133 187.27 73.894 185.645 73.396C184.02 72.8981 182.264 73.0618 180.76 73.8515C177.255 75.6843 174.539 78.7311 173.118 82.4219C171.698 86.1127 171.671 90.1946 173.043 93.9038L179.04 110.228" stroke="black" stroke-width="8" stroke-linecap="round" stroke-linejoin="round"/>
</svg>

<svg width="260" height="260" fill="none" xmlns="http://www.w3.org/2000/svg"><path d="m198.323 194.155 19.483 56.159M94.573 106.399 84.487 67.974a11.396 11.396 0 0 0-14.764-7.877v0a11.395 11.395 0 0 0-7.368 13.365c4.819 20.602 15.654 66.534 17.634 72.262 6.767 19.483 17.653 59.287 44.363 71.632l9.216 32.988" stroke="#000" stroke-width="8" stroke-linecap="round" stroke-linejoin="round"/><path d="m122.292 105.689-11.795-35.986-9.336-28.569a11.475 11.475 0 0 0-5.804-6.706 11.466 11.466 0 0 0-8.85-.561v0a11.485 11.485 0 0 0-7.338 13.745l9.236 35.256 8.317 31.698" stroke="#000" stroke-width="8" stroke-linecap="round" stroke-linejoin="round"/><path d="m145.203 88.826-24.84-67.704a12.235 12.235 0 0 0-15.514-7.347v0a12.245 12.245 0 0 0-7.627 15.384l13.785 42.084 9.596 29.298" stroke="#000" stroke-width="8" stroke-linecap="round" stroke-linejoin="round"/><path d="m172.633 83.968-3.898-8.997-21.752-49.91a11.813 11.813 0 0 0-14.714-6.448v0a11.823 11.823 0 0 0-7.228 15.244l11.726 31.988 11.376 30.888" stroke="#000" stroke-width="8" stroke-linecap="round" stroke-linejoin="round"/><path d="m75.57 102.441-.65 1.73m23.252-62.047-.63 1.68" stroke="#fff" stroke-width="5" stroke-miterlimit="10"/><path d="M141.605 137.947a6.547 6.547 0 0 1-2.289-.41L34.566 98.282a6.528 6.528 0 0 1-3.819-8.317l6.248-16.693a6.497 6.497 0 0 1 6.078-4.219 6.217 6.217 0 0 1 2.299.43c1.244.462 2.561.7 3.888.7a11.483 11.483 0 0 0 4.659-1 10.817 10.817 0 0 0 5.458-14.554 11.186 11.186 0 0 0-6.258-5.848 6.528 6.528 0 0 1-3.819-8.367l6.238-16.623a6.557 6.557 0 0 1 6.088-4.218 6.44 6.44 0 0 1 2.289.42l104.739 39.254a6.504 6.504 0 0 1 3.819 8.357l-24.78 66.135a6.524 6.524 0 0 1-6.088 4.218v-.01Z" fill="#fff"/><path d="M61.626 22.072c.481.003.958.091 1.409.26l104.75 39.254a3.994 3.994 0 0 1 2.242 2.087 4.012 4.012 0 0 1 .107 3.061l-24.781 66.125a3.99 3.99 0 0 1-1.467 1.886 3.992 3.992 0 0 1-2.281.713 4.005 4.005 0 0 1-1.4-.25L35.445 95.963a4 4 0 0 1-2.349-5.148l6.248-16.643a3.998 3.998 0 0 1 3.729-2.6c.481.002.959.09 1.41.26a13.6 13.6 0 0 0 4.777.87 13.994 13.994 0 0 0 5.678-1.22 13.305 13.305 0 0 0 6.708-17.902 13.665 13.665 0 0 0-7.648-7.138 3.998 3.998 0 0 1-2.349-5.158l6.238-16.613a3.999 3.999 0 0 1 3.739-2.6Zm0-4.998a8.997 8.997 0 0 0-8.447 5.837L46.96 39.525a8.996 8.996 0 0 0 5.22 11.585 8.787 8.787 0 0 1 4.888 4.559 8.316 8.316 0 0 1-4.218 11.235 8.997 8.997 0 0 1-3.629.78 8.767 8.767 0 0 1-2.998-.55 8.915 8.915 0 0 0-6.878.23 8.925 8.925 0 0 0-4.698 4.998l-6.238 16.674a8.998 8.998 0 0 0 5.268 11.585l104.77 39.265a8.85 8.85 0 0 0 3.159.57 8.993 8.993 0 0 0 8.417-5.818l24.79-66.144a9.001 9.001 0 0 0-2.283-9.736 8.996 8.996 0 0 0-2.985-1.85L64.784 17.653a8.997 8.997 0 0 0-3.158-.58Z" fill="#fff"/><path d="M55.398 42.694A17.547 17.547 0 1 1 43.073 75.55l-6.238 16.644 104.76 39.265 24.79-66.125L61.625 26.07l-6.227 16.624Z" fill="#fff" stroke="#000" stroke-width="8" stroke-linecap="round" stroke-linejoin="round"/><path d="m98.171 42.134-3.158 8.416" stroke="#000" stroke-width="8" stroke-linecap="round" stroke-linejoin="round"/><path d="m89.365 65.615-8.467 22.591" stroke="#000" stroke-width="8" stroke-linecap="round" stroke-linejoin="round" stroke-dasharray="16.09 16.09"/><path d="m78.08 95.743-3.16 8.427m98.123-10.266 5.998 16.324 3.228 8.706a43.062 43.062 0 0 1-3.058 16.434m11.005 61.556c20.122-13.225 24.54-21.931 22.361-67.274-.23-4.998 0-6.447-2.849-13.175a9549.484 9549.484 0 0 0-8.446-17.923l-9.717-18.103" stroke="#000" stroke-width="8" stroke-linecap="round" stroke-linejoin="round"/><path d="M201.282 98.592 189.436 76.51a6.447 6.447 0 0 0-8.676-2.659 16.265 16.265 0 0 0-7.717 20.053l5.997 16.324" stroke="#000" stroke-width="8" stroke-linecap="round" stroke-linejoin="round"/></svg>
